X:1
T:Seeing The Mist Again
C:Arrangement by Zhiming
M:4/4
L:1/8
Q:1/4=80
K:C
V:1
g2>e2aged|c2AcG4|A2>A2G2cd|e8|
g2>e2aged|c2AcG4|g2>a2gede/2d/2|c8|
d2>c2e2d2|c2deg4|a2>a2e2ga|g8|
a2>a2g2ed|zcdfe2c2|zdedA2GA|c8|
V:2 clef=bass
C,8|C,8|A,,8|C,8|
C,8|C,8|A,,8|C,8|
G,,8|C,8|A,,8|C,8|
A,,8|C,8|A,,8|C,8|
